Icons/TM_Icons/more icons/smiley-neutral.svg

<?xml version='1.0' encoding='utf-8'?>
<ns0:svg xmlns:ns0="http://www.w3.org/2000/svg" version="1.1" viewBox="86.0 -37.0 1554.0 1554.0" role="img" focusable="false" preserveAspectRatio="xMidYMid meet">
   <ns0:path fill="currentColor" d="M863 837c-214.667 0 -397.833 -75.833 -549.5 -227.5s-227.5 -334.833 -227.5 -549.5s75.833 -397.83 227.5 -549.5s334.833 -227.5 549.5 -227.5c214.67 0 397.83 75.8301 549.5 227.5s227.5 334.833 227.5 549.5s-75.8301 397.833 -227.5 549.5 s-334.83 227.5 -549.5 227.5zM863 738c187.33 0 347.17 -66.167 479.5 -198.5c132.34 -132.333 198.5 -292.167 198.5 -479.5s-66.1699 -347.33 -198.5 -480s-292.17 -199 -479.5 -199c-187.333 0 -347.167 66.3398 -479.5 199c-132.333 132.67 -198.5 292.667 -198.5 480 s66.167 347.167 198.5 479.5s292.167 198.5 479.5 198.5zM419 325v-99h888v99h-888zM616 -64c-34 0 -63 -12 -87 -36s-36 -53 -36 -87s12 -63 36 -87s53 -36 87 -36c34.667 0 64.001 12 88 36c24 24 36 53 36 87c-0.000976562 34 -12.168 63 -36.5 87 c-24.334 24 -53.501 36 -87.5 36zM1110 -64c-34 0 -63.1699 -12 -87.5 -36c-24.335 -24 -36.502 -53 -36.5 -87c0 -34 12.167 -63 36.5 -87c24.3398 -24 53.5 -36 87.5 -36s63 12 87 36s36 53 36 87s-12 63 -36 87s-53 36 -87 36z" />
</ns0:svg>

<svg xmlns="http://www.w3.org/2000/svg" width="400" height="200" viewBox="-691 -717 3108 1554"><path fill="currentColor" d="M863 837q-322 0-549.5-227.5C86 382 86 274.667 86 60s75.833-397.83 227.5-549.5S648.333-717 863-717c214.67 0 397.83 75.83 549.5 227.5S1640-154.667 1640 60s-75.83 397.833-227.5 549.5S1077.67 837 863 837m0-99c187.33 0 347.17-66.167 479.5-198.5C1474.84 407.167 1541 247.333 1541 60s-66.17-347.33-198.5-480S1050.33-619 863-619c-187.333 0-347.167 66.34-479.5 199C251.167-287.33 185-127.333 185 60s66.167 347.167 198.5 479.5S675.667 738 863 738M419 325v-99h888v99zM616-64q-51 0-87-36c-36-36-36-53-36-87s12-63 36-87 53-36 87-36q52.001 0 88 36t36 87q-.002 51-36.5 87-36.501 36-87.5 36m494 0c-34 0-63.17-12-87.5-36q-36.503-36-36.5-87 0-51 36.5-87c24.34-24 53.5-36 87.5-36s63 12 87 36 36 53 36 87-12 63-36 87-53 36-87 36"/></svg>
